build/redact/BorderLeftOutline.svg

<svg xmlns="http://www.w3.org/2000/svg" fill="none" viewBox="0 0 24 24" focusable="false"><path d="M0 0H24V24H0z" transform="matrix(1 0 0 -1 0 24)"/><path fill="#74767B" fill-rule="evenodd" d="M5.3 7.6583C5.30058 6.36092 6.35249 5.30937 7.65 5.30937L8.00566 5.30937C8.04336 5.30937 8.08031 5.30616 8.11625 5.3L8.30752 5.3C8.6665 5.3 8.95752 5.00898 8.95752 4.65C8.95752 4.29101 8.6665 4 8.30752 4L7.65 4C7.35511 4 7.06756 4.0351 6.79163 4.10166C6.75222 4.11116 6.71452 4.12407 6.67876 4.14C5.42824 4.48434 4.44653 5.47734 4.11822 6.73443C4.11189 6.75306 4.10636 6.77214 4.10166 6.79163C4.0351 7.06756 4 7.35511 4 7.65L4 16.3453C4 18.3612 5.63416 19.9954 7.65 19.9954L8.00566 19.9954L8.01407 19.9953L8.30752 19.9953C8.6665 19.9953 8.95752 19.7043 8.95752 19.3453C8.95752 18.9863 8.6665 18.6953 8.30752 18.6953L7.65 18.6953C7.56492 18.6953 7.48107 18.6908 7.39862 18.6821C6.21895 18.5566 5.3 17.5583 5.3 16.3454L5.3 7.6583ZM11.3422 4C10.9832 4 10.6922 4.29101 10.6922 4.65C10.6922 5.00898 10.9832 5.3 11.3422 5.3L12.6572 5.3C13.0162 5.3 13.3072 5.00898 13.3072 4.65C13.3072 4.29101 13.0162 4 12.6572 4L11.3422 4ZM15.6919 4C15.3329 4 15.0419 4.29101 15.0419 4.65C15.0419 5.00898 15.3329 5.3 15.6919 5.3L16.3494 5.3C16.5409 5.3 16.7261 5.32276 16.903 5.36541C17.252 5.44959 17.6031 5.23492 17.6873 4.88594C17.6996 4.83473 17.7055 4.78346 17.7055 4.733C17.7055 4.43965 17.5056 4.17347 17.2078 4.10166C16.9319 4.0351 16.6443 4 16.3494 4L15.6919 4ZM19.8978 6.79163C19.8136 6.44265 19.4625 6.22799 19.1135 6.31216C18.8157 6.38398 18.6157 6.65015 18.6157 6.94351C18.6157 6.99397 18.6217 7.04523 18.634 7.09645C18.6767 7.27331 18.6994 7.45856 18.6994 7.65L18.6994 8.3072C18.6994 8.66619 18.9904 8.9572 19.3494 8.9572C19.7084 8.9572 19.9994 8.66619 19.9994 8.3072L19.9994 7.65C19.9994 7.35511 19.9643 7.06756 19.8978 6.79163ZM11.9942 9.57148C12.3532 9.57148 12.6442 9.28046 12.6442 8.92148L12.6442 7.72636C12.6442 7.36737 12.3532 7.07636 11.9942 7.07636C11.6353 7.07636 11.3442 7.36737 11.3442 7.72636L11.3442 8.92148C11.3442 9.28046 11.6353 9.57148 11.9942 9.57148ZM19.9994 11.3405C19.9994 10.9815 19.7084 10.6905 19.3494 10.6905C18.9904 10.6905 18.6994 10.9815 18.6994 11.3405L18.6994 12.6549C18.6994 13.0138 18.9904 13.3049 19.3494 13.3049C19.7084 13.3049 19.9994 13.0138 19.9994 12.6549L19.9994 11.3405ZM7.7208 11.3477C7.36182 11.3477 7.0708 11.6387 7.0708 11.9977C7.0708 12.3567 7.36182 12.6477 7.7208 12.6477L8.91701 12.6477C9.276 12.6477 9.56701 12.3567 9.56701 11.9977C9.56701 11.6387 9.276 11.3477 8.91701 11.3477L7.7208 11.3477ZM15.0719 11.3478C14.7129 11.3478 14.4219 11.6389 14.4219 11.9978C14.4219 12.3568 14.7129 12.6478 15.0719 12.6478L16.2681 12.6478C16.6271 12.6478 16.9181 12.3568 16.9181 11.9978C16.9181 11.6389 16.6271 11.3478 16.2681 11.3478L15.0719 11.3478ZM11.9942 16.9172C12.3532 16.9172 12.6442 16.6262 12.6442 16.2672L12.6442 15.0721C12.6442 14.7131 12.3532 14.4221 11.9942 14.4221C11.6353 14.4221 11.3442 14.7131 11.3442 15.0721L11.3442 16.2672C11.3442 16.6262 11.6353 16.9172 11.9942 16.9172ZM19.9994 15.6881C19.9994 15.3291 19.7084 15.0381 19.3494 15.0381C18.9904 15.0381 18.6994 15.3291 18.6994 15.6881L18.6994 16.3453C18.6994 16.5367 18.6767 16.722 18.634 16.8989C18.6217 16.9501 18.6157 17.0013 18.6157 17.0518C18.6157 17.3452 18.8157 17.6113 19.1135 17.6832C19.4625 17.7673 19.8136 17.5527 19.8978 17.2037C19.9643 16.9278 19.9994 16.6402 19.9994 16.3453L19.9994 15.6881ZM17.2078 19.8937C17.5056 19.8218 17.7055 19.5557 17.7055 19.2623C17.7055 19.2118 17.6996 19.1606 17.6873 19.1094C17.6031 18.7604 17.252 18.5457 16.903 18.6299C16.7261 18.6726 16.5409 18.6953 16.3494 18.6953L15.6919 18.6953C15.3329 18.6953 15.0419 18.9863 15.0419 19.3453C15.0419 19.7043 15.3329 19.9953 15.6919 19.9953L16.3494 19.9953C16.6443 19.9953 16.9319 19.9602 17.2078 19.8937ZM11.3422 18.6953C10.9832 18.6953 10.6922 18.9863 10.6922 19.3453C10.6922 19.7043 10.9832 19.9953 11.3422 19.9953L12.6572 19.9953C13.0162 19.9953 13.3072 19.7043 13.3072 19.3453C13.3072 18.9863 13.0162 18.6953 12.6572 18.6953L11.3422 18.6953Z"/></svg>

<svg xmlns="http://www.w3.org/2000/svg" fill="none" viewBox="0 0 24 24" focusable="false"><path fill="#74767B" fill-rule="evenodd" d="M5.29 7.65C5.3 6.36 6.35 5.3 7.64 5.3h.66c.36 0 .65-.3.65-.65 0-.36-.29-.65-.65-.65h-.66c-.29 0-.58.03-.85.1-.04.01-.08.02-.12.04a3.64 3.64 0 0 0-2.56 2.59c0 .02-.01.04-.01.06-.07.27-.1.56-.1.86v8.69c0 2.02 1.63 3.65 3.64 3.65h.66c.36 0 .65-.29.65-.65s-.29-.65-.65-.65h-.66c-.08 0-.16 0-.25-.01a2.36 2.36 0 0 1-2.1-2.34zM11.34 4c-.36 0-.65.29-.65.65 0 .35.29.65.65.65h1.31c.36 0 .65-.3.65-.65 0-.36-.29-.65-.65-.65zm4.35 0c-.36 0-.65.29-.65.65 0 .35.29.65.65.65h.65c.2 0 .38.02.56.06.35.08.7-.13.78-.48.01-.05.02-.1.02-.15 0-.3-.2-.56-.5-.63-.27-.07-.56-.1-.86-.1zm4.2 2.79a.64.64 0 0 0-.78-.48c-.3.07-.5.34-.5.63 0 .05.01.1.02.15.04.18.06.36.06.56v.65c0 .36.3.65.65.65.36 0 .65-.29.65-.65v-.65c0-.3-.03-.59-.1-.86m-7.9 2.78c.36 0 .65-.29.65-.65v-1.2c0-.36-.29-.65-.65-.65s-.65.29-.65.65v1.2c0 .36.29.65.65.65m8 1.77c0-.36-.29-.65-.65-.65-.35 0-.65.29-.65.65v1.31c0 .36.3.65.65.65.36 0 .65-.29.65-.65zm-12.27 0c-.36 0-.65.29-.65.65s.29.65.65.65h1.19c.36 0 .65-.29.65-.65s-.29-.65-.65-.65zm7.35 0c-.36 0-.65.29-.65.65s.29.65.65.65h1.19c.36 0 .65-.29.65-.65s-.29-.65-.65-.65zm-3.08 5.57c.36 0 .65-.29.65-.65v-1.19c0-.36-.29-.65-.65-.65s-.65.29-.65.65v1.19c0 .36.29.65.65.65m8-1.23c0-.36-.29-.65-.65-.65-.35 0-.65.29-.65.65v.66c0 .19-.02.38-.06.55-.01.06-.02.11-.02.16a.65.65 0 0 0 1.28.15c.07-.28.1-.56.1-.86zm-2.79 4.21c.3-.07.5-.34.5-.63 0-.05-.01-.1-.02-.16a.654.654 0 0 0-.78-.48c-.18.05-.36.07-.56.07h-.65c-.36 0-.65.29-.65.65s.29.65.65.65h.65c.3 0 .59-.03.86-.1m-5.86-1.2c-.36 0-.65.29-.65.65s.29.65.65.65h1.31c.36 0 .65-.29.65-.65s-.29-.65-.65-.65z"/></svg>
